packages/bezier-icons/icons/face-smile-add.svg

<svg width="24" height="24" viewBox="0 0 24 24" fill="none" xmlns="http://www.w3.org/2000/svg">
<path fill-rule="evenodd" clip-rule="evenodd" d="M18 1H20V4H23V6H20V9H18V6H15V4H18V1ZM13 2.04938C12.6711 2.01672 12.3375 2 12 2C6.47715 2 2 6.47715 2 12C2 17.5228 6.47715 22 12 22C17.5228 22 22 17.5228 22 12C22 11.6625 21.9833 11.3289 21.9506 11H19.9381C19.979 11.3276 20 11.6613 20 12C20 16.4183 16.4183 20 12 20C7.58172 20 4 16.4183 4 12C4 7.58172 7.58172 4 12 4C12.3387 4 12.6724 4.02104 13 4.06189V2.04938ZM8.7863 11.8253C7.9413 11.8253 7.5873 11.2153 7.5873 9.72032C7.5873 8.22532 7.9413 7.61432 8.7863 7.61432C9.6313 7.61432 9.9843 8.22532 9.9843 9.72032C9.9843 11.2153 9.6313 11.8253 8.7863 11.8253ZM11.9943 17.7081H11.9903C7.6833 17.7041 6.4993 14.2481 6.4513 14.1011C6.2783 13.5761 6.5643 13.0111 7.0893 12.8391C7.6103 12.6651 8.1723 12.9501 8.3483 13.4691C8.3833 13.5681 9.1683 15.7061 11.9913 15.7081H11.9943C14.8578 15.7081 15.6288 13.535 15.649 13.4781L15.6493 13.4771C15.8223 12.9521 16.3863 12.6651 16.9113 12.8391C17.4363 13.0121 17.7213 13.5771 17.5483 14.1021C17.5003 14.2491 16.3113 17.7081 11.9943 17.7081ZM14.015 9.72032C14.015 11.2153 14.368 11.8253 15.214 11.8253C16.059 11.8253 16.412 11.2153 16.412 9.72032C16.412 8.22532 16.059 7.61432 15.214 7.61432C14.368 7.61432 14.015 8.22532 14.015 9.72032Z" fill="#313234"/>
</svg>

<svg xmlns="http://www.w3.org/2000/svg" width="24" height="24" fill="none" viewBox="0 0 24 24"><path fill="#313234" fill-rule="evenodd" d="M18 1h2v3h3v2h-3v3h-2V6h-3V4h3zm-5 1.05Q12.507 2 12 2C6.477 2 2 6.477 2 12s4.477 10 10 10 10-4.477 10-10q0-.507-.05-1h-2.012q.062.492.062 1a8 8 0 1 1-7-7.938zm-4.214 9.775c-.845 0-1.199-.61-1.199-2.105s.354-2.106 1.2-2.106c.844 0 1.197.611 1.197 2.106s-.353 2.105-1.198 2.105m3.208 5.883h-.004c-4.307-.004-5.49-3.46-5.539-3.607a.999.999 0 0 1 1.897-.632c.035.1.82 2.237 3.643 2.24h.003c2.864 0 3.635-2.174 3.655-2.23v-.002a.998.998 0 1 1 1.9.625c-.049.147-1.238 3.606-5.555 3.606m2.021-7.988c0 1.495.353 2.105 1.199 2.105.845 0 1.198-.61 1.198-2.105s-.353-2.106-1.198-2.106c-.846 0-1.199.611-1.199 2.106" clip-rule="evenodd"/></svg>
